webapp/src/assets/icons/cloudproviders/aws/compute/ec2_ami.svg

<svg width="48" height="48" xmlns="http://www.w3.org/2000/svg"><path d="M30.143 37.727h8.456V26.656h-8.456v11.071Zm-20.914 0h8.457V26.656H9.229v11.071Zm10.457 0h8.457V26.656h-8.457v11.071Zm19.913-13.071H8.229a1 1 0 0 0-1 1v13.071a1 1 0 0 0 1 1h31.37a1 1 0 0 0 1-1V25.656a1 1 0 0 0-1-1Zm-9.456-5.228h8.456v-8.457h-8.456v8.457Zm-20.914 0h8.457v-8.457H9.229v8.457Zm10.457 0h8.457v-8.457h-8.457v8.457ZM39.599 8.971H8.229a1 1 0 0 0-1 1v10.457a1 1 0 0 0 1 1h31.37a1 1 0 0 0 1-1V9.971a1 1 0 0 0-1-1Zm4.228 30.408a4.452 4.452 0 0 1-4.447 4.448H8.448A4.453 4.453 0 0 1 4 39.379V8.448A4.453 4.453 0 0 1 8.448 4H39.38a4.452 4.452 0 0 1 4.447 4.448v30.931ZM39.38 2H8.448A6.455 6.455 0 0 0 2 8.448v30.931a6.456 6.456 0 0 0 6.448 6.448H39.38a6.455 6.455 0 0 0 6.447-6.448V8.448A6.454 6.454 0 0 0 39.38 2Z" fill="#ED7100" fill-rule="evenodd"/></svg>

<?xml version="1.0" encoding="UTF-8"?>
<svg width="48px" height="48px" viewBox="0 0 48 48" version="1.1" xmlns="http://www.w3.org/2000/svg" xmlns:xlink="http://www.w3.org/1999/xlink">
    <title>Icon-Resource/Compute/Res_Amazon-EC2_AMI_48</title>
    <g id="Icon-Resource/Compute/Res_Amazon-EC2_AMI_48" stroke="none" stroke-width="1" fill="none" fill-rule="evenodd">
        <path d="M30.143,37.727 L38.599,37.727 L38.599,26.656 L30.143,26.656 L30.143,37.727 Z M9.229,37.727 L17.686,37.727 L17.686,26.656 L9.229,26.656 L9.229,37.727 Z M19.686,37.727 L28.143,37.727 L28.143,26.656 L19.686,26.656 L19.686,37.727 Z M39.599,24.656 L8.229,24.656 C7.676,24.656 7.229,25.104 7.229,25.656 L7.229,38.727 C7.229,39.279 7.676,39.727 8.229,39.727 L39.599,39.727 C40.151,39.727 40.599,39.279 40.599,38.727 L40.599,25.656 C40.599,25.104 40.151,24.656 39.599,24.656 L39.599,24.656 Z M30.143,19.428 L38.599,19.428 L38.599,10.971 L30.143,10.971 L30.143,19.428 Z M9.229,19.428 L17.686,19.428 L17.686,10.971 L9.229,10.971 L9.229,19.428 Z M19.686,19.428 L28.143,19.428 L28.143,10.971 L19.686,10.971 L19.686,19.428 Z M39.599,8.971 L8.229,8.971 C7.676,8.971 7.229,9.419 7.229,9.971 L7.229,20.428 C7.229,20.98 7.676,21.428 8.229,21.428 L39.599,21.428 C40.151,21.428 40.599,20.98 40.599,20.428 L40.599,9.971 C40.599,9.419 40.151,8.971 39.599,8.971 L39.599,8.971 Z M43.827,39.379 C43.827,41.832 41.832,43.827 39.38,43.827 L8.448,43.827 C5.995,43.827 4,41.832 4,39.379 L4,8.448 C4,5.995 5.995,4 8.448,4 L39.38,4 C41.832,4 43.827,5.995 43.827,8.448 L43.827,39.379 Z M39.38,2 L8.448,2 C4.893,2 2,4.892 2,8.448 L2,39.379 C2,42.934 4.893,45.827 8.448,45.827 L39.38,45.827 C42.935,45.827 45.827,42.934 45.827,39.379 L45.827,8.448 C45.827,4.892 42.935,2 39.38,2 L39.38,2 Z" id="Amazon-Containers-AMI_Resource-Icon_light-bg" fill="#ED7100"></path>
    </g>
</svg>
